X:31
T:Lichtmann 31
C:G. Concone
M:C
L:1/4
Q:"Moderato" 1/4=92
K:A
!mf!(A,2"_smoothly"B,2|C3/DE2)z|(F2G2|A3/B/c)z|(c3B|A3G|F3D|C2B,)z|
(E2G2|A2E)z|(B2E2|c2A)z|(E2G2|A2E)z|(DECE|B,3)z|
(A,2B,2|C3/D/E)z|(F2G2|A3/B/c)z|(c3B|A3F|E4|A,2)z2|]

